img/logo.svg

<svg width="120" height="40" viewBox="0 0 120 40" fill="none" xmlns="http://www.w3.org/2000/svg">
<g clip-path="url(#clip0_102_40)">
<path d="M1.68999 31V27.4162L2.28729 27.3647C3.05623 27.3029 3.67756 27.0111 4.15128 26.4893C4.625 25.9607 4.97858 25.1197 5.212 23.9663C5.4523 22.806 5.60677 21.2475 5.67543 19.2908L6.02557 9.90909H20.3402V31H16.0046V13.4826H10.1655L9.83594 20.8253C9.72609 23.187 9.4446 25.1162 8.99148 26.6129C8.54522 28.1096 7.8312 29.215 6.84943 29.929C5.87453 30.643 4.53918 31 2.84339 31H1.68999ZM31.0813 31.3089C29.4817 31.3089 28.0982 30.9691 26.9311 30.2894C25.7708 29.6029 24.8749 28.6486 24.2433 27.4265C23.6116 26.1976 23.2958 24.773 23.2958 23.1527C23.2958 21.5187 23.6116 20.0907 24.2433 18.8686C24.8749 17.6397 25.7708 16.6854 26.9311 16.0057C28.0982 15.3191 29.4817 14.9759 31.0813 14.9759C32.681 14.9759 34.061 15.3191 35.2212 16.0057C36.3884 16.6854 37.2878 17.6397 37.9194 18.8686C38.551 20.0907 38.8668 21.5187 38.8668 23.1527C38.8668 24.773 38.551 26.1976 37.9194 27.4265C37.2878 28.6486 36.3884 29.6029 35.2212 30.2894C34.061 30.9691 32.681 31.3089 31.0813 31.3089ZM31.1019 27.9105C31.8297 27.9105 32.4373 27.7045 32.9247 27.2926C33.4122 26.8738 33.7795 26.304 34.0266 25.5831C34.2807 24.8622 34.4077 24.0418 34.4077 23.1218C34.4077 22.2018 34.2807 21.3814 34.0266 20.6605C33.7795 19.9396 33.4122 19.3698 32.9247 18.951C32.4373 18.5322 31.8297 18.3228 31.1019 18.3228C30.3673 18.3228 29.7494 18.5322 29.2482 18.951C28.7539 19.3698 28.3797 19.9396 28.1257 20.6605C27.8786 21.3814 27.755 22.2018 27.755 23.1218C27.755 24.0418 27.8786 24.8622 28.1257 25.5831C28.3797 26.304 28.7539 26.8738 29.2482 27.2926C29.7494 27.7045 30.3673 27.9105 31.1019 27.9105ZM52.5533 15.1818V18.6317H45.983V31H41.7195V15.1818H52.5533ZM61.8089 31.3089C60.2092 31.3089 58.8258 30.9691 57.6586 30.2894C56.4984 29.6029 55.6024 28.6486 54.9708 27.4265C54.3392 26.1976 54.0233 24.773 54.0233 23.1527C54.0233 21.5187 54.3392 20.0907 54.9708 18.8686C55.6024 17.6397 56.4984 16.6854 57.6586 16.0057C58.8258 15.3191 60.2092 14.9759 61.8089 14.9759C63.4085 14.9759 64.7885 15.3191 65.9488 16.0057C67.1159 16.6854 68.0153 17.6397 68.6469 18.8686C69.2786 20.0907 69.5944 21.5187 69.5944 23.1527C69.5944 24.773 69.2786 26.1976 68.6469 27.4265C68.0153 28.6486 67.1159 29.6029 65.9488 30.2894C64.7885 30.9691 63.4085 31.3089 61.8089 31.3089ZM61.8295 27.9105C62.5572 27.9105 63.1648 27.7045 63.6523 27.2926C64.1397 26.8738 64.507 26.304 64.7542 25.5831C65.0082 24.8622 65.1352 24.0418 65.1352 23.1218C65.1352 22.2018 65.0082 21.3814 64.7542 20.6605C64.507 19.9396 64.1397 19.3698 63.6523 18.951C63.1648 18.5322 62.5572 18.3228 61.8295 18.3228C61.0948 18.3228 60.4769 18.5322 59.9758 18.951C59.4814 19.3698 59.1073 19.9396 58.8532 20.6605C58.6061 21.3814 58.4825 22.2018 58.4825 23.1218C58.4825 24.0418 58.6061 24.8622 58.8532 25.5831C59.1073 26.304 59.4814 26.8738 59.9758 27.2926C60.4769 27.7045 61.0948 27.9105 61.8295 27.9105ZM70.9151 18.6317V15.1818H85.2504V18.6317H80.1527V31H75.9716V18.6317H70.9151ZM92.1013 25.2124L97.7963 15.1818H102.122V31H97.9404V20.9386L92.2661 31H87.9099V15.1818H92.1013V25.2124ZM105.638 31V15.1818H119.469V31H115.278V18.6317H109.778V31H105.638Z" fill="white"/>
</g>
<defs>
<clipPath id="clip0_102_40">
<rect width="120" height="40" fill="white"/>
</clipPath>
</defs>
</svg>

<svg width="120" height="40" fill="none" xmlns="http://www.w3.org/2000/svg"><g clip-path="url(#clip0_102_40)"><path d="M1.69 31v-3.584l.597-.051c.77-.062 1.39-.354 1.864-.876.474-.528.828-1.37 1.061-2.523.24-1.16.395-2.719.463-4.675l.35-9.382H20.34V31h-4.335V13.483h-5.84l-.33 7.342c-.109 2.362-.39 4.291-.844 5.788-.446 1.497-1.16 2.602-2.142 3.316C5.875 30.643 4.54 31 2.843 31H1.69zm29.391.309c-1.6 0-2.983-.34-4.15-1.02a6.976 6.976 0 01-2.688-2.863c-.631-1.228-.947-2.653-.947-4.273 0-1.634.316-3.062.947-4.284.632-1.23 1.528-2.184 2.688-2.863 1.167-.687 2.55-1.03 4.15-1.03 1.6 0 2.98.343 4.14 1.03a6.874 6.874 0 012.698 2.863c.632 1.222.948 2.65.948 4.284 0 1.62-.316 3.045-.948 4.274a6.956 6.956 0 01-2.698 2.862c-1.16.68-2.54 1.02-4.14 1.02zm.02-3.399c.729 0 1.336-.206 1.824-.617.487-.42.855-.989 1.102-1.71.254-.72.38-1.541.38-2.461 0-.92-.126-1.74-.38-2.462-.248-.72-.615-1.29-1.102-1.709-.488-.419-1.095-.628-1.823-.628-.735 0-1.353.21-1.854.628-.494.419-.868.989-1.122 1.71-.247.72-.371 1.54-.371 2.46 0 .92.124 1.741.37 2.462.255.721.629 1.29 1.123 1.71.501.412 1.12.617 1.854.617zm21.452-12.728v3.45h-6.57V31h-4.264V15.182h10.834zm9.256 16.127c-1.6 0-2.983-.34-4.15-1.02a6.976 6.976 0 01-2.688-2.863c-.632-1.228-.948-2.653-.948-4.273 0-1.634.316-3.062.948-4.284.631-1.23 1.527-2.184 2.688-2.863 1.167-.687 2.55-1.03 4.15-1.03 1.6 0 2.98.343 4.14 1.03a6.875 6.875 0 012.698 2.863c.632 1.222.947 2.65.947 4.284 0 1.62-.315 3.045-.947 4.274a6.956 6.956 0 01-2.698 2.862c-1.16.68-2.54 1.02-4.14 1.02zm.02-3.399c.728 0 1.336-.206 1.823-.617.488-.42.855-.989 1.102-1.71.254-.72.381-1.541.381-2.461 0-.92-.127-1.74-.38-2.462-.248-.72-.615-1.29-1.103-1.709-.487-.419-1.095-.628-1.822-.628-.735 0-1.353.21-1.854.628-.495.419-.869.989-1.123 1.71-.247.72-.37 1.54-.37 2.46 0 .92.123 1.741.37 2.462.254.721.628 1.29 1.123 1.71.5.412 1.119.617 1.854.617zm9.086-9.278v-3.45H85.25v3.45h-5.097V31h-4.181V18.632h-5.057zm21.186 6.58l5.695-10.03h4.326V31H97.94V20.939L92.266 31H87.91V15.182h4.19v10.03zM105.638 31V15.182h13.831V31h-4.191V18.632h-5.5V31h-4.14z" fill="#fff"/></g><defs><clipPath id="clip0_102_40"><path fill="#fff" d="M0 0h120v40H0z"/></clipPath></defs></svg>
